modules/entypo/icons/flight.svg

<svg height="1000px" width="1002.777099609375px" xmlns="http://www.w3.org/2000/svg">
  <g>
    <path d="M268 970c0 0 124 -400 124 -400c0 0 -180 0 -180 0c0 0 -112 100 -112 100c0 0 -100 0 -100 0c0 0 80 -170 80 -170c0 0 -80 -170 -80 -170c0 0 100 0 100 0c0 0 112 100 112 100c0 0 180 0 180 0c0 0 -124 -400 -124 -400c0 0 100 0 100 0c0 0 224 400 224 400c0 0 258 0 258 0c0 0 16 0 16 0c0 0 12 1.333 36 4c24 2.667 39.333 6.333 46 11c6.667 4.667 18.667 11.667 36 21c17.333 9.333 22.667 20.667 16 34c0 21.333 -12.667 37.667 -38 49c-25.333 11.333 -50 17.667 -74 19c0 0 -38 2 -38 2c0 0 -258 0 -258 0c0 0 -224 400 -224 400c0 0 -100 0 -100 0c0 0 0 0 0 0" />
  </g>
</svg>

<svg height="1000" width="1002.777" viewBox="0 0 1002.777 1000" xmlns="http://www.w3.org/2000/svg"><path d="M268 970l124-400H212L100 670H0l80-170L0 330h100l112 100h180L268 30h100l224 400h274l36 4c24 2.667 39.333 6.333 46 11 6.667 4.667 18.667 11.667 36 21s22.667 20.667 16 34c0 21.333-12.667 37.667-38 49-25.333 11.333-50 17.667-74 19l-38 2H592L368 970H268"/></svg>
